assets/img/braze_icons/left-indent-01.svg

<svg fill="none" height="24" viewBox="0 0 24 24" width="24" xmlns="http://www.w3.org/2000/svg"><g fill="#801ed7"><path d="m3 3c-.55228 0-1 .44772-1 1s.44772 1 1 1h18c.5523 0 1-.44772 1-1s-.4477-1-1-1z"/><path d="m12 8.25c-.5523 0-1 .44772-1 1s.4477 1 1 1h9c.5523 0 1-.44772 1-1s-.4477-1-1-1z"/><path d="m11 14.75c0-.5523.4477-1 1-1h9c.5523 0 1 .4477 1 1s-.4477 1-1 1h-9c-.5523 0-1-.4477-1-1z"/><path d="m3 19c-.55228 0-1 .4477-1 1s.44772 1 1 1h18c.5523 0 1-.4477 1-1s-.4477-1-1-1z"/><path d="m4.85209 7.7391c-.18137-.13608-.36804-.27615-.53225-.3774-.15969-.09846-.46285-.2694-.85101-.26133-.45015.00936-.87228.22043-1.14985.57493-.23936.30569-.28451.65078-.30155.8376-.01752.19213-.01747.42549-.01743.65224v5.86986c-.00004.2267-.00009.4601.01743.6522.01704.1868.06219.5319.30155.8376.27757.3545.6997.5656 1.14985.5749.38816.0081.69132-.1628.85101-.2613.16422-.1013.35089-.2413.53226-.3774l3.91719-2.9379c.12454-.0933.26536-.1989.37827-.3004.12453-.1121.30793-.2982.41711-.5789.13601-.3498.13601-.7377 0-1.0875-.10918-.2807-.29258-.4669-.41711-.5789-.11291-.1015-.25372-.2071-.37827-.3004z"/></g></svg>

<svg width="24" height="24" viewBox="0 0 24 24" fill="none" xmlns="http://www.w3.org/2000/svg">
<path d="M3 3C2.44772 3 2 3.44772 2 4C2 4.55228 2.44772 5 3 5H21C21.5523 5 22 4.55228 22 4C22 3.44772 21.5523 3 21 3H3Z" fill="#801ED7"/>
<path d="M12 8.25C11.4477 8.25 11 8.69772 11 9.25C11 9.80228 11.4477 10.25 12 10.25H21C21.5523 10.25 22 9.80228 22 9.25C22 8.69772 21.5523 8.25 21 8.25H12Z" fill="#801ED7"/>
<path d="M11 14.75C11 14.1977 11.4477 13.75 12 13.75H21C21.5523 13.75 22 14.1977 22 14.75C22 15.3023 21.5523 15.75 21 15.75H12C11.4477 15.75 11 15.3023 11 14.75Z" fill="#801ED7"/>
<path d="M3 19C2.44772 19 2 19.4477 2 20C2 20.5523 2.44772 21 3 21H21C21.5523 21 22 20.5523 22 20C22 19.4477 21.5523 19 21 19H3Z" fill="#801ED7"/>
<path d="M4.85209 7.7391C4.67072 7.60302 4.48405 7.46295 4.31984 7.3617C4.16015 7.26324 3.85699 7.0923 3.46883 7.10037C3.01868 7.10973 2.59655 7.3208 2.31898 7.6753C2.07962 7.98099 2.03447 8.32608 2.01743 8.5129C1.99991 8.70503 1.99996 8.93839 2 9.16514V15.035C1.99996 15.2617 1.99991 15.4951 2.01743 15.6872C2.03447 15.874 2.07962 16.2191 2.31898 16.5248C2.59655 16.8793 3.01868 17.0904 3.46883 17.0997C3.85699 17.1078 4.16015 16.9369 4.31984 16.8384C4.48406 16.7371 4.67073 16.5971 4.8521 16.461L8.76929 13.5231C8.89383 13.4298 9.03465 13.3242 9.14756 13.2227C9.27209 13.1106 9.45549 12.9245 9.56467 12.6438C9.70068 12.294 9.70068 11.9061 9.56467 11.5563C9.45549 11.2756 9.27209 11.0894 9.14756 10.9774C9.03465 10.8759 8.89384 10.7703 8.76929 10.677L4.85209 7.7391Z" fill="#801ED7"/>
</svg>
